X: 15667
T: Gold Ring, The
R: jig
M: 6/8
K: Gmajor
BAG ~A2d|cAG ~G2A|BAG A2d|cAG FGA|
BAG A2d|cAG GBd|~g3 afd|cAF G2A:|
|:~B3 BAG|~A3 AGF|~G3 GFG|ADE FGA|
~B3 BAG|~A3 AGF|FDE F2d|1 cAF G2A:|2 cAF G2g||
|:fdd edd|fdd edd|fdd edd|dcA GBd|
fdd edd|fdd ed^c|dfa ged|1 cAF G2g:|2 cAF GBd||
fed|cAG FGA|~g3 fed|~g3 fed|~g3 afd|1 cAF GBd:|2 cAF G2E||
GBd|cAG FGA|DBB DBB|DAA DAA|~G3 GBd|1 cAF G2E:|2 cAF G2A||
GBd|cAG FGA|~B3 ~D3|~A3 ~D3|~G3 GBd|cAF G2A:|
A2G|cAG FGA|BAG AGF|GFD FGA|fag fed|1 cAF G2A:|2 cAF G3||

